icons/drop.svg

<svg width="24" height="24" viewBox="0 0 24 24" fill="none" xmlns="http://www.w3.org/2000/svg">
<path fill-rule="evenodd" clip-rule="evenodd" d="M12 2C12.2762 2 12.54 2.11421 12.7291 2.31554L17.736 7.64873C18.8331 8.8414 19.569 10.3453 19.86 11.9689C20.1511 13.5923 19.9862 15.2719 19.3836 16.7993C18.7809 18.3271 17.7642 19.6413 16.4518 20.5702C15.1386 21.4997 13.5898 22 12 22C10.4102 22 8.86142 21.4997 7.54815 20.5702C6.23575 19.6413 5.21908 18.3271 4.61637 16.7993C4.01379 15.2719 3.84888 13.5923 4.13995 11.9689C4.43104 10.3453 5.16692 8.84144 6.26402 7.64876L6.27091 7.64127L11.2709 2.31554C11.46 2.11421 11.7238 2 12 2ZM7.73265 9.00639C6.90223 9.91059 6.33428 11.0628 6.10856 12.3218C5.88251 13.5826 6.01145 14.8857 6.47683 16.0654C6.94207 17.2447 7.71992 18.2415 8.70359 18.9377C9.68639 19.6334 10.833 20 12 20C13.167 20 14.3136 19.6334 15.2964 18.9377C16.2801 18.2415 17.0579 17.2447 17.5232 16.0654C17.9885 14.8857 18.1175 13.5826 17.8914 12.3218C17.6657 11.0628 17.0978 9.91059 16.2673 9.00639L12 4.46101L7.73265 9.00639Z" fill="black"/>
</svg>

<svg
  width="24"
  height="24"
  viewBox="0 0 24 24"
  xmlns="http://www.w3.org/2000/svg"
>
  <path
    fill-rule="evenodd"
    clip-rule="evenodd"
    d="M12 2a1 1 0 0 1 .73.316l5.006 5.333a8.627 8.627 0 0 1 2.124 4.32 8.906 8.906 0 0 1-.476 4.83 8.37 8.37 0 0 1-2.932 3.771A7.698 7.698 0 0 1 12 22c-1.59 0-3.139-.5-4.452-1.43a8.37 8.37 0 0 1-2.932-3.77 8.906 8.906 0 0 1-.476-4.831 8.628 8.628 0 0 1 2.124-4.32l.007-.008 5-5.325A1 1 0 0 1 12 2zM7.733 9.006a6.629 6.629 0 0 0-1.624 3.316 6.907 6.907 0 0 0 .368 3.743 6.37 6.37 0 0 0 2.227 2.873A5.698 5.698 0 0 0 12 20a5.698 5.698 0 0 0 3.296-1.062 6.37 6.37 0 0 0 2.227-2.873 6.907 6.907 0 0 0 .368-3.743 6.628 6.628 0 0 0-1.624-3.316L12 4.461 7.733 9.006z"
  />
</svg>
